brandFactory_export/3.Masa/Escudo antivirus _3Masa.svg

<?xml version="1.0" encoding="UTF-8"?>
<svg width="24px" height="24px" viewBox="0 0 24 24" version="1.1" xmlns="http://www.w3.org/2000/svg" xmlns:xlink="http://www.w3.org/1999/xlink">
    <title>3.Masa/Escudo antivirus _3Masa</title>
    <g id="Symbols" stroke="none" stroke-width="1" fill="none" fill-rule="evenodd">
        <g id="3.Masa/Escudo-antivirus-_3Masa" fill="#5CB615" fill-rule="nonzero">
            <path d="M22.6858059,3.77815126 C22.6858059,4.10084034 22.7058824,11.707563 22.1478992,14.9983193 C21.4151261,19.2605042 13.5529412,23.1260504 12.6621849,23.5529412 C12.4638655,23.6470588 12.2352941,23.6470588 12.0403361,23.5529412 C11.1462185,23.1260504 3.29411765,19.2605042 2.56134454,14.9983193 C1.99327731,11.707563 2.01335673,4.10084034 2.01335673,3.77815126 C2.01335673,3.37478992 2.3394958,3.04537815 2.74621849,3.04537815 C2.80336134,3.04537815 2.86386555,3.05210084 2.9210084,3.06554622 C4.85042017,3.37815126 5.86554622,2.68571429 7.15630252,1.82184874 C8.42689076,0.964705882 9.86890756,0 12.3462185,0 L12.3529412,0 C14.8302521,0.00336134454 16.2722689,0.968067227 17.5428571,1.82184874 C18.8336134,2.68571429 19.8554622,3.37142857 21.805042,3.06218487 C22.0201681,3.02857143 22.2386555,3.08907563 22.410084,3.22689076 C22.5781513,3.36134454 22.6756303,3.56302521 22.6858059,3.77815126 Z M12.3495798,15.3613445 C10.4739496,15.3613445 9.96302521,14.6621849 9.96302521,12.107563 C9.96302521,10.5142857 10.1848739,9.65714286 10.712605,9.25042017 C11.0554622,8.98487395 11.5932773,8.85378151 12.3529412,8.85378151 C13.102521,8.85378151 13.6369748,8.98151261 13.9831933,9.24369748 C14.5142857,9.65042017 14.7394958,10.507563 14.7394958,12.107563 C14.7361345,14.6621849 14.2252101,15.3613445 12.3495798,15.3613445 Z M12.3529412,6.91092437 C13.9529412,6.91092437 13.9529412,7.24033613 13.9529412,7.69747899 C13.9529412,7.70756303 13.9529412,7.71092437 13.9495798,7.7210084 C13.4957983,7.56638655 12.9714286,7.48235294 12.3462185,7.48235294 C11.7277311,7.48235294 11.2033613,7.56638655 10.7529412,7.71764706 L10.7495798,7.69747899 C10.7529412,7.24033613 10.7529412,6.91092437 12.3529412,6.91092437 Z M15.794958,6.91428571 L15.8453782,7.8487395 L15.2907563,8.02016807 C15.3042017,7.91260504 15.3176471,7.80840336 15.3176471,7.69411765 C15.3176471,6.44705882 14.6252101,5.92941176 13.8689076,5.70420168 C14.0537815,5.43529412 14.0235294,5.07563025 13.794958,4.84033613 C13.5361345,4.57478992 13.1092437,4.57142857 12.8436975,4.8302521 L12.8336134,4.84033613 L12.3596639,5.3210084 C12.3495798,5.33109244 12.3462185,5.34453782 12.3327731,5.35798319 C12.3226891,5.34453782 12.3193277,5.33109244 12.3092437,5.3210084 L11.8319328,4.84033613 C11.5731092,4.57478992 11.1462185,4.57142857 10.8806723,4.8302521 L10.8705882,4.84033613 C10.6386555,5.0789916 10.6117647,5.44537815 10.8067227,5.71428571 C10.0672269,5.94621849 9.39831933,6.46386555 9.39831933,7.6907563 C9.39831933,7.80840336 9.41176471,7.91932773 9.42521008,8.02689076 L8.8302521,7.84201681 L8.88067227,6.90756303 C8.90084034,6.53109244 8.61512605,6.20840336 8.23865546,6.18487395 C7.86890756,6.19159664 7.54285714,6.45714286 7.52268908,6.83697479 L7.44537815,8.3092437 C7.42857143,8.62521008 7.62689076,8.91092437 7.92605042,9.00504202 L9.01512605,9.34117647 C8.81008403,9.83193277 8.70252101,10.3831933 8.65210084,10.9445378 L7.83529412,10.9445378 C7.45882353,10.9445378 7.15294118,11.2537815 7.15294118,11.6302521 L7.15294118,12.6084034 C7.15294118,12.9882353 7.45882353,13.297479 7.83529412,13.297479 C8.20840336,13.297479 8.51428571,12.9882353 8.51428571,12.6084034 L8.51428571,12.3193277 L8.60840336,12.3193277 C8.61512605,13.0151261 8.67226891,13.6907563 8.82689076,14.2957983 L7.92605042,14.5747899 C7.62689076,14.6689076 7.42857143,14.9546218 7.44537815,15.2672269 L7.52268908,16.7394958 C7.54285714,17.1058824 7.84201681,17.3915966 8.20168067,17.3915966 L8.23865546,17.3915966 C8.61176471,17.3714286 8.90084034,17.0487395 8.88067227,16.6689076 L8.8302521,15.7344538 L9.41176471,15.5563025 C9.95966387,16.2756303 10.8638655,16.7327731 12.3529412,16.7327731 C13.8352941,16.7327731 14.7394958,16.2789916 15.2907563,15.5630252 L15.8487395,15.7344538 L15.7983193,16.6689076 C15.7781513,17.0453782 16.0638655,17.3680672 16.4403361,17.3915966 L16.4773109,17.3915966 C16.8403361,17.3882353 17.1394958,17.102521 17.1563025,16.7394958 L17.2336134,15.2672269 C17.2504202,14.9512605 17.0521008,14.6655462 16.7529412,14.5747899 L15.8756303,14.3058824 C16.0336134,13.7008403 16.0907563,13.0218487 16.097479,12.3193277 L16.1915966,12.3193277 L16.1915966,12.6084034 C16.1915966,12.9882353 16.497479,13.297479 16.8705882,13.297479 C17.2470588,13.297479 17.5529686,12.9882353 17.5529686,12.6117647 L17.5529686,11.6302521 C17.5563025,11.2537815 17.2504202,10.9445378 16.8739496,10.9411765 L16.0504202,10.9411765 C15.9966387,10.3764706 15.892437,9.82184874 15.6840336,9.33109244 L16.7495798,9.00168067 C17.0521008,8.90756303 17.2504202,8.62184874 17.2302521,8.30588235 L17.1529412,6.83361345 C17.1327731,6.45378151 16.8201681,6.18487395 16.4369748,6.18151261 C16.0605042,6.21176471 15.7747899,6.53781513 15.794958,6.91428571 Z M12.312605,9.85546218 C11.9361345,9.85546218 11.6302521,10.1647059 11.6336134,10.5411765 L11.6336134,14.205042 C11.6336134,14.5848739 11.9361345,14.8907563 12.312605,14.8907563 C12.6890756,14.8907563 12.9915966,14.5815126 12.9915966,14.205042 L12.9915966,10.5411765 C12.9915966,10.1680672 12.6890756,9.85882353 12.312605,9.85546218 Z" id="Escudo-antivirus-_3Masa"></path>
        </g>
    </g>
</svg>

<svg width="24" height="24" viewBox="0 0 24 24" xmlns="http://www.w3.org/2000/svg"><path d="M22.686 3.778c0 .323.02 7.93-.538 11.22-.733 4.263-8.595 8.128-9.486 8.555a.72.72 0 01-.622 0c-.894-.427-8.746-4.292-9.479-8.555-.568-3.29-.548-10.897-.548-11.22a.732.732 0 01.908-.712c1.93.312 2.945-.38 4.235-1.244C8.426.965 9.87 0 12.346 0h.007c2.477.003 3.92.968 5.19 1.822 1.29.864 2.312 1.55 4.262 1.24a.774.774 0 01.605.165.747.747 0 01.276.551zM12.35 15.361c-1.876 0-2.387-.699-2.387-3.253 0-1.594.222-2.45.75-2.858.342-.265.88-.396 1.64-.396.75 0 1.284.128 1.63.39.531.406.756 1.264.756 2.864-.003 2.554-.514 3.253-2.39 3.253zm.003-8.45c1.6 0 1.6.33 1.6.786 0 .01 0 .014-.003.024-.454-.155-.979-.239-1.604-.239-.618 0-1.143.084-1.593.236l-.003-.02c.003-.458.003-.787 1.603-.787zm3.442.003l.05.935-.554.171c.013-.107.027-.212.027-.326 0-1.247-.693-1.765-1.45-1.99a.682.682 0 00-.073-.864.674.674 0 00-.951-.01l-.01.01-.474.481c-.01.01-.014.024-.027.037-.01-.013-.014-.027-.024-.037l-.477-.48a.674.674 0 00-.951-.01l-.01.01a.678.678 0 00-.064.873c-.74.232-1.409.75-1.409 1.977 0 .117.014.228.027.336l-.595-.185.05-.934a.686.686 0 00-.641-.723c-.37.007-.696.272-.716.652l-.078 1.472a.69.69 0 00.481.696l1.09.336c-.206.49-.313 1.042-.364 1.604h-.817a.686.686 0 00-.682.685v.978c0 .38.306.69.682.69.373 0 .68-.31.68-.69v-.289h.093c.007.696.064 1.372.219 1.977l-.9.279a.689.689 0 00-.482.692l.078 1.472c.02.367.319.653.679.653h.037a.684.684 0 00.642-.723l-.05-.935.58-.178c.549.72 1.453 1.177 2.942 1.177 1.482 0 2.386-.454 2.938-1.17l.558.171-.05.935c-.02.376.265.7.641.723h.037a.685.685 0 00.68-.653l.077-1.472a.683.683 0 00-.481-.692l-.877-.27c.158-.604.215-1.283.221-1.986h.095v.29c0 .38.305.688.679.688.376 0 .682-.309.682-.685v-.982a.686.686 0 00-.68-.689h-.823c-.053-.565-.158-1.12-.366-1.61l1.066-.33c.302-.093.5-.38.48-.695l-.077-1.472c-.02-.38-.333-.65-.716-.652a.7.7 0 00-.642.732zm-3.482 2.941a.68.68 0 00-.68.686v3.664c0 .38.303.686.68.686.376 0 .679-.31.679-.686v-3.664a.687.687 0 00-.68-.686z" fill="#5CB615" fill-rule="nonzero"/></svg>
